data/sheikah/period.svg

<!-- Generated by IcoMoon.io -->
<svg version="1.1" xmlns="http://www.w3.org/2000/svg" width="1024" height="1024" viewBox="0 0 1024 1024">
<title></title>
<g id="icomoon-ignore">
</g>
<path d="M870.5 870.5v-597.5l-119.5-119.5h-478l-119.5 119.5v478l119.5 119.5h179.5l119.5-119.5v-299h-119.5v299h-179.5v-478h478v597.5h119.5z"></path>
</svg>

<svg xmlns="http://www.w3.org/2000/svg" width="1024" height="1024" viewBox="0 0 1024 1024">
  <title/>
  <path d="M870.5 870.5V273L751 153.5H273L153.5 273v478L273 870.5h179.5L572 751V452H452.5v299H273V273h478v597.5z"/>
</svg>
